F1 Grump/assets/track outlines/Marina Bay - White_1.svg

<svg width="4414" height="2939" viewBox="0 0 4414 2939" fill="none" xmlns="http://www.w3.org/2000/svg">
<g clip-path="url(#clip0_13_708)">
<path d="M778.618 2854.48C766.4 2854.38 754.363 2851.52 743.408 2846.11C717.938 2833.99 695.718 2801.69 654.528 2735.98C645.948 2722.31 638.048 2709.68 631.658 2700.4C604.488 2660.9 550.658 2618.83 498.528 2578.13C485.818 2568.2 473.088 2558.25 460.528 2548.25L449.378 2539.37C408.098 2506.49 365.378 2472.49 343.698 2438.65C318.398 2399.11 300.698 2331.23 302.528 2280.74C302.678 2276.38 303.048 2270.74 303.458 2264.19C304.268 2251.35 306.458 2217.26 304.198 2197.93C220.978 2185.63 119.528 2117.29 84.7381 2080.15C53.8281 2047.15 -38.0419 1908.38 17.3581 1837.82C67.0881 1774.48 143.638 1634.96 224.678 1487.22L260.268 1422.43C315.078 1322.91 369.148 1220.76 416.868 1130.62C469.518 1031.12 514.998 945.21 545.488 893.07C572.208 847.37 655.098 748.18 728.998 748.18C729.568 748.18 730.148 748.18 730.728 748.18C792.658 749.41 851.728 802.83 899.128 845.74C941.998 884.48 1005 952.09 1055.57 1006.39C1081.66 1034.39 1104.18 1058.55 1119.57 1074.12C1123.24 1077.82 1128.16 1083.53 1133.82 1090.12C1137.65 1094.58 1144.2 1102.27 1150.56 1109.12C1160.56 1092.94 1172.95 1068.28 1180.69 1052.85C1190.25 1033.85 1199.27 1015.85 1207.9 1002.61C1219.72 984.61 1233.69 962.45 1249.19 938.02C1299.46 858.71 1362.01 760.02 1420.07 685.68C1424.72 679.68 1429.79 671.25 1435.16 662.26C1452.05 634.03 1475.16 595.34 1518.56 590.33C1558.08 585.91 1599.23 611.97 1639 637.25C1647.89 642.91 1656.53 648.44 1664.64 653.17C1704 676.23 1760.56 711.77 1826 753C1904.68 802.48 1993.86 858.56 2067.56 901.63C2097.5 919.13 2128.77 937.89 2160.56 956.94C2268.22 1021.54 2379.56 1088.32 2462.25 1119.94C2520.25 1142.14 2584.89 1145.02 2653.25 1148.08C2674.77 1149.08 2696.25 1150.01 2717.43 1151.57C2916.56 1166.23 3481.71 1201.05 3666.87 1206.81C3713.36 1208.28 3767.71 1200.75 3795.87 1188.96C3818.25 1179.59 3833.5 1162.76 3833.98 1157.1C3832.82 1130.22 3829.9 1096.38 3826.5 1057.2C3823.19 1018.8 3819.43 975.31 3816.88 931.63C3812.41 855.55 3785.62 784.08 3775.52 757.18C3765.58 730.63 3758.1 710.18 3751.84 693.09C3733.35 642.51 3725.69 621.58 3694.65 553.81C3655.06 467.3 3632.65 397.33 3643.03 315.81L3648.41 273.54C3657.34 202.94 3667.49 122.93 3673.99 80.05C3680.73 35.53 3723.42 2.66999 3777.79 0.149994C3806.38 -1.23001 3859.66 9.28999 3898.31 93.59C3908.02 114.77 3932.55 137.59 3963.88 154.65C3982.22 164.65 4063.38 169.47 4121.21 160.75C4128.83 159.601 4136.61 160.046 4144.05 162.056C4151.49 164.067 4158.43 167.599 4164.44 172.43C4195.19 196.62 4202.83 250 4209.61 317.26C4210.49 325.88 4211.15 332.97 4211.87 337.33C4239.98 509.61 4300.1 957.98 4348.41 1318.25C4375.72 1521.97 4399.29 1697.91 4412.14 1787.25C4416.87 1820.09 4412.97 1874.71 4398.45 1905.64C4382.91 1938.72 4339.99 2003.18 4307.96 2048.35C4229.81 2158.47 4215.02 2163.14 4192.39 2162.35C4034.79 2157.78 3727.06 2137.9 3543.22 2126.02C3501.22 2123.33 3465.14 2121.02 3437.85 2119.28C3311.96 2111.47 3246.3 2041.78 3242.65 1912.11C3242.34 1900.53 3238.85 1882.18 3235.36 1868.5C3202.06 1866.5 3157.24 1863.89 3110.18 1861.18C3024.7 1856.18 2931.88 1850.81 2887.67 1847.96C2885.67 1852.84 2883.52 1859.55 2882.05 1864.19C2880.49 1869.03 2878.99 1873.68 2877.43 1877.94C2872.66 1891.01 2865.94 1922.1 2859.43 1952.14C2836.13 2060.08 2823.84 2120 2772.07 2117.62C2741.8 2116.44 2707.07 2115.22 2669.71 2113.9C2521.45 2108.69 2336.97 2102.17 2225.52 2092.5C2177.19 2088.3 2128.24 2057.72 2100.79 2014.59C2069.68 1965.66 2067.48 1906.49 2068.95 1875.59C2069.36 1866.78 2070.5 1856.93 2071.75 1846.59C2073.93 1828.59 2077.49 1799.13 2070.92 1790.23C2060.57 1786.36 2029.11 1787.42 2011.92 1788C1999.53 1788.44 1987.52 1788.83 1976.59 1788.6C1922.82 1787.42 1869.77 1784.41 1811.97 1760.6C1732.8 1728.04 1577.58 1596.45 1427.48 1469.18C1356.48 1408.95 1289.32 1352.04 1245.95 1319.72C1241.2 1316.18 1236.07 1311.72 1230.76 1307.15C1229.91 1306.41 1228.94 1305.59 1227.94 1304.73C1220.61 1320.34 1212.25 1342.73 1206.94 1356.84C1204.07 1364.54 1201.31 1371.94 1198.68 1378.68L1187.1 1408.21C1155.43 1488.88 1102.44 1623.91 1071.89 1728.6C1064.77 1752.98 1056.77 1777.78 1048.59 1803.09C1035.22 1844.56 1021.35 1887.44 1010.65 1931.51C999.298 1978.19 990.648 2028.19 982.198 2076.51C976.908 2106.94 971.638 2137.2 965.748 2166.73C946.748 2262.14 930.368 2367.73 915.918 2460.95C908.068 2511.52 900.668 2559.26 894.138 2596.41C891.198 2613.18 888.308 2635.14 885.268 2658.41C876.818 2722.83 870.418 2766.95 859.098 2791.91C845.458 2821.91 826.928 2841.46 803.978 2849.91C795.852 2852.92 787.255 2854.46 778.588 2854.46M86.2781 1890.75C81.8881 1912.2 117.648 1988.06 147.448 2019.85C175.958 2050.27 271.228 2110.21 326.628 2112.23C334.597 2112.53 342.422 2114.45 349.623 2117.88C356.824 2121.3 363.25 2126.16 368.508 2132.16C394.418 2161.16 393.448 2211.68 389.738 2269.83C389.388 2275.4 389.058 2280.25 388.918 2283.96C387.628 2319.85 402.288 2369.15 416.228 2390.96C430.118 2412.61 470.418 2444.7 502.818 2470.48L514.138 2479.48C526.388 2489.27 538.848 2499.01 551.298 2508.73C608.568 2553.46 667.778 2599.73 702.558 2650.29C709.558 2660.41 718.128 2674.11 727.448 2688.98C740.658 2709.98 763.508 2746.46 777.018 2762.31C778.078 2760.49 779.268 2758.18 780.598 2755.31C787.338 2740.44 794.738 2684.11 799.598 2646.84C802.788 2622.62 805.798 2599.72 809.048 2581.09C815.428 2544.8 822.758 2497.47 830.538 2447.36C845.128 2353.29 861.668 2246.65 881.058 2149.36C886.798 2120.53 891.928 2090.97 897.058 2061.28C905.698 2011.48 914.638 1960 926.708 1910.45C938.198 1863.23 952.548 1818.76 966.428 1775.76C974.338 1751.28 982.098 1727.26 988.978 1703.67C1020.63 1595.16 1074.56 1457.81 1106.78 1375.73L1118.28 1346.38C1120.76 1340 1123.37 1333.03 1126.07 1325.78C1146.07 1272.06 1161.07 1235.56 1186.02 1218.34C1228.02 1189.34 1267.81 1223.98 1286.96 1240.6C1290.5 1243.7 1293.89 1246.7 1297.07 1249.08C1342.63 1283.03 1410.75 1340.77 1482.87 1401.92C1614.27 1513.33 1777.78 1651.92 1844.38 1679.36C1888.65 1697.57 1931.24 1699.9 1978.38 1700.94C1987.8 1701.13 1998.24 1700.76 2008.93 1700.36C2053.21 1698.82 2098.93 1697.26 2128.28 1724.36C2168.98 1762.09 2162.09 1819.22 2157.54 1857.05C2156.54 1865.13 2155.54 1872.8 2155.26 1879.65C2153.64 1913.91 2160.43 1946.56 2173.44 1967C2186.29 1987.19 2211.28 2003.22 2232.89 2005.09C2342.13 2014.58 2525.44 2021.09 2672.71 2026.25C2700.76 2027.25 2727.36 2028.16 2751.71 2029.07C2759.54 2004.88 2769.23 1959.97 2774.99 1933.26C2782.79 1897.26 2789.49 1866.16 2796.39 1847.35C2797.53 1844.18 2798.64 1840.71 2799.78 1837.12C2807.52 1812.83 2825.53 1755.85 2884.61 1759.86C2924.09 1762.49 3023.79 1768.29 3115.09 1773.59C3175.76 1777.11 3232.73 1780.44 3265.99 1782.47C3323.89 1785.84 3328.66 1896.85 3328.99 1909.47C3330.63 1967.83 3340.8 2025.35 3443.11 2031.71C3470.45 2033.41 3506.61 2035.76 3548.65 2038.47C3726 2050 4018.73 2068.93 4179 2074.27C4210.6 2039.05 4299.84 1911.73 4320.38 1867.99C4324.99 1858.15 4329.81 1822.23 4326.6 1799.86C4313.69 1710.08 4290.07 1533.93 4262.73 1330C4214.5 970.29 4154.47 522.6 4126.58 351.6C4125.68 346.05 4124.71 337.07 4123.58 326.12C4122.08 311.2 4118.08 271.77 4112.22 249.93C4056.58 255.17 3965.02 254.71 3922.92 231.78C3894.78 216.47 3843.92 182.95 3819.86 130.48C3807.66 103.89 3792.71 87.9 3781.65 87.58C3769.1 88.18 3761.37 92.78 3759.07 95.06C3752.71 137.39 3742.38 218.94 3734.07 284.64L3728.72 327C3720.94 387.92 3739.07 442.77 3773.02 516.93C3805.52 587.87 3814.09 611.3 3832.86 662.62C3839.05 679.62 3846.46 699.81 3856.28 726.08C3867.66 756.4 3897.87 836.97 3903.11 926.42C3905.61 968.89 3909.3 1011.73 3912.58 1049.55C3916.05 1089.75 3919.04 1124.48 3920.31 1153.4C3922.57 1206.4 3876.02 1250.12 3828.85 1269.89C3783.48 1288.89 3713.42 1295.8 3664.19 1294.34C3478.07 1288.54 2910.88 1253.62 2711.19 1238.91C2690.76 1237.4 2670.14 1236.49 2649.48 1235.56C2577.3 1232.34 2502.68 1229.01 2431.72 1201.86C2342.01 1167.53 2227.38 1098.77 2116.53 1032.26C2085.04 1013.4 2054.06 994.8 2024.4 977.48C1949.49 933.69 1859.68 877.2 1780.4 827.37C1718.3 788.29 1659.61 751.37 1621.4 729.04C1612.4 723.82 1602.86 717.73 1593 711.46C1575.36 700.23 1543.27 679.82 1529.72 677.62C1524.02 682.62 1514.72 698.13 1509.02 707.71C1502.52 718.57 1495.79 729.79 1487.81 740.04C1432.39 810.96 1371.12 907.68 1321.89 985.37C1306.14 1010.19 1291.89 1032.63 1279.89 1050.99C1273.98 1059.99 1266.04 1075.84 1257.64 1092.58C1229.9 1147.88 1209.47 1185.33 1179.86 1201.39C1135.09 1225.65 1094.92 1178.58 1068.37 1147.46C1064.37 1142.77 1060.96 1138.68 1058.37 1136.07C1042.1 1119.61 1019.18 1095.07 992.648 1066.54C943.158 1013.45 881.558 947.37 841.488 911.13C810.588 883.13 758.868 836.37 728.878 835.76C710.468 836.16 649.598 886.66 619.808 937.68C590.348 988.24 545.248 1073.4 493.068 1172C445.188 1262.42 390.928 1364.91 335.788 1465.08L300.248 1529.77C214.518 1686.09 140.368 1821.25 86.2481 1890.77" fill="white"/>
</g>
<defs>
<clipPath id="clip0_13_708">
<rect width="4414" height="2939" fill="white"/>
</clipPath>
</defs>
</svg>

<svg xmlns="http://www.w3.org/2000/svg" viewBox="0 0 4414.02 3612.64"><defs><style>.cls-1{fill:#fff;}</style></defs><title>Marina Bay - White_1</title><g id="Layer_2" data-name="Layer 2"><g id="Layer_1-2" data-name="Layer 1"><path class="cls-1" d="M865.75,3612.64V3263.18h70.19l99,295.43,99-295.43h70.2v349.46h-38.89v-308h-7.07L1056.64,3600h-43.43L911.7,3304.59h-7.07v308Z"/><path class="cls-1" d="M1259.14,3612.64l95.95-349.46h84.84l96,349.46H1497.5l-25.25-89.89H1322.77l-25.25,89.89Zm125.24-316.13-53,191.4h132.31l-53-191.4Z"/><path class="cls-1" d="M1629.81,3478.82v133.82h-38.89V3263.18H1720.2q55.54,0,83.58,25.76t28,80.29q0,80.8-64.14,101.51l67.17,141.9h-42.93l-63.12-133.82Zm90.9-34.34q71.2,0,71.2-73.48t-71.71-73.48h-90.39v147Z"/><path class="cls-1" d="M1902,3612.64V3263.18h38.88v349.46Z"/><path class="cls-1" d="M2026.22,3612.64V3263.18h72.72l133.83,315.12h10.6V3263.18h38.38v349.46h-71.2L2074.7,3297.52h-9.59v315.12Z"/><path class="cls-1" d="M2336.8,3612.64l95.94-349.46h84.85l95.95,349.46h-38.39l-25.25-89.89H2400.43l-25.25,89.89ZM2462,3296.51l-53,191.4h132.31l-53-191.4Z"/><path class="cls-1" d="M2779.67,3263.18h126.75q52,0,78,21.47t26,67.41q0,32.83-11.36,51.26t-33.58,29q55.54,19.2,55.55,82.31,0,52.53-27.78,75.25T2913,3612.64H2779.67Zm125.24,34.34h-86.35v120.7h89.88q32.32,0,47.22-15.4t14.9-46.46q0-31.07-15.91-45T2904.91,3297.52Zm4,154.53h-90.39V3578.3h92.92q34.33,0,52.26-14.39t17.93-50.75q0-19.18-7.32-32.32t-19.45-18.69A109.93,109.93,0,0,0,2909,3452.05Z"/><path class="cls-1" d="M3054.9,3612.64l95.95-349.46h84.84l95.95,349.46h-38.38L3268,3522.75H3118.53l-25.25,89.89Zm125.24-316.13-53,191.4h132.31l-53-191.4Z"/><path class="cls-1" d="M3475.06,3612.64h-38.89V3465.69l-111.6-202.51h43.93l86.86,163.62,86.86-163.62h43.94l-111.1,202.51Z"/><path class="cls-1" d="M778.62,2854.48a81,81,0,0,1-35.21-8.37c-25.47-12.12-47.69-44.42-88.88-110.13-8.58-13.67-16.48-26.3-22.87-35.58-27.17-39.5-81-81.57-133.13-122.27-12.71-9.93-25.44-19.88-38-29.88l-11.15-8.88c-41.28-32.88-84-66.88-105.68-100.72-25.3-39.54-43-107.42-41.17-157.91.15-4.36.52-10,.93-16.55.81-12.84,3-46.93.74-66.26-83.22-12.3-184.67-80.64-219.46-117.78-30.91-33-122.78-171.77-67.38-242.33,49.73-63.34,126.28-202.86,207.32-350.6l35.59-64.79c54.81-99.52,108.88-201.67,156.6-291.81,52.65-99.5,98.13-185.41,128.62-237.55C572.21,847.37,655.1,748.18,729,748.18c.57,0,1.15,0,1.73,0,61.93,1.23,121,54.65,168.4,97.56C942,884.48,1005,952.09,1055.57,1006.39c26.09,28,48.61,52.16,64,67.73,3.67,3.7,8.59,9.41,14.25,16,3.83,4.46,10.38,12.15,16.74,19,10-16.18,22.39-40.84,30.13-56.27,9.56-19,18.58-37,27.21-50.24,11.82-18,25.79-40.16,41.29-64.59,50.27-79.31,112.82-178,170.88-252.34,4.65-6,9.72-14.43,15.09-23.42,16.89-28.23,40-66.92,83.4-71.93,39.52-4.42,80.67,21.64,120.44,46.92,8.89,5.66,17.53,11.19,25.64,15.92C1704,676.23,1760.56,711.77,1826,753c78.68,49.48,167.86,105.56,241.56,148.63,29.94,17.5,61.21,36.26,93,55.31,107.66,64.6,219,131.38,301.69,163,58,22.2,122.64,25.08,191,28.14,21.52,1,43,1.93,64.18,3.49,199.13,14.66,764.28,49.48,949.44,55.24,46.49,1.47,100.84-6.06,129-17.85,22.38-9.37,37.63-26.2,38.11-31.86-1.16-26.88-4.08-60.72-7.48-99.9-3.31-38.4-7.07-81.89-9.62-125.57-4.47-76.08-31.26-147.55-41.36-174.45-9.94-26.55-17.42-47-23.68-64.09-18.49-50.58-26.15-71.51-57.19-139.28-39.59-86.51-62-156.48-51.62-238l5.38-42.27c8.93-70.6,19.08-150.61,25.58-193.49,6.74-44.52,49.43-77.38,103.8-79.9h0c28.59-1.38,81.87,9.14,120.52,93.44,9.71,21.18,34.24,44,65.57,61.06,18.34,10,99.5,14.82,157.33,6.1a55.72,55.72,0,0,1,43.23,11.68c30.75,24.19,38.39,77.57,45.17,144.83.88,8.62,1.54,15.71,2.26,20.07,28.11,172.28,88.23,620.65,136.54,980.92,27.31,203.72,50.88,379.66,63.73,469,4.73,32.84.83,87.46-13.69,118.39-15.54,33.08-58.46,97.54-90.49,142.71-78.15,110.12-92.94,114.79-115.57,114-157.6-4.57-465.33-24.45-649.17-36.33-42-2.69-78.08-5-105.37-6.74-125.89-7.81-191.55-77.5-195.2-207.17-.31-11.58-3.8-29.93-7.29-43.61-33.3-2-78.12-4.61-125.18-7.32-85.48-5-178.3-10.37-222.51-13.22-2,4.88-4.15,11.59-5.62,16.23-1.56,4.84-3.06,9.49-4.62,13.75-4.77,13.07-11.49,44.16-18,74.2-23.3,107.94-35.59,167.86-87.36,165.48-30.27-1.18-65-2.4-102.36-3.72-148.26-5.21-332.74-11.73-444.19-21.4-48.33-4.2-97.28-34.78-124.73-77.91-31.11-48.93-33.31-108.1-31.84-139,.41-8.81,1.55-18.66,2.8-29,2.18-18,5.74-47.46-.83-56.36-10.35-3.87-41.81-2.81-59-2.23-12.39.44-24.4.83-35.33.6-53.77-1.18-106.82-4.19-164.62-28-79.17-32.56-234.39-164.15-384.49-291.42-71-60.23-138.16-117.14-181.53-149.46-4.75-3.54-9.88-8-15.19-12.57-.85-.74-1.82-1.56-2.82-2.42-7.33,15.61-15.69,38-21,52.11-2.87,7.7-5.63,15.1-8.26,21.84l-11.58,29.53c-31.67,80.67-84.66,215.7-115.21,320.39-7.12,24.38-15.12,49.18-23.3,74.49-13.37,41.47-27.24,84.35-37.94,128.42-11.35,46.68-20,96.68-28.45,145-5.29,30.43-10.56,60.69-16.45,90.22-19,95.41-35.38,201-49.83,294.22-7.85,50.57-15.25,98.31-21.78,135.46-2.94,16.77-5.83,38.73-8.87,62-8.45,64.42-14.85,108.54-26.17,133.5-13.64,30-32.17,49.55-55.12,58a72.9,72.9,0,0,1-25.39,4.55M86.28,1890.75c-4.39,21.45,31.37,97.31,61.17,129.1,28.51,30.42,123.78,90.36,179.18,92.38a58.63,58.63,0,0,1,41.88,19.93c25.91,29,24.94,79.52,21.23,137.67-.35,5.57-.68,10.42-.82,14.13-1.29,35.89,13.37,85.19,27.31,107,13.89,21.65,54.19,53.74,86.59,79.52l11.32,9c12.25,9.79,24.71,19.53,37.16,29.25,57.27,44.73,116.48,91,151.26,141.56,7,10.12,15.57,23.82,24.89,38.69,13.21,21,36.06,57.48,49.57,73.33,1.06-1.82,2.25-4.13,3.58-7,6.74-14.87,14.14-71.2,19-108.47,3.19-24.22,6.2-47.12,9.45-65.75,6.38-36.29,13.71-83.62,21.49-133.73,14.59-94.07,31.13-200.71,50.52-298,5.74-28.83,10.87-58.39,16-88.08,8.64-49.8,17.58-101.28,29.65-150.83,11.49-47.22,25.84-91.69,39.72-134.69,7.91-24.48,15.67-48.5,22.55-72.09,31.65-108.51,85.58-245.86,117.8-327.94l11.5-29.35c2.48-6.38,5.09-13.35,7.79-20.6,20-53.72,35-90.22,59.95-107.44,42-29,81.79,5.64,100.94,22.26,3.54,3.1,6.93,6.1,10.11,8.48,45.56,33.95,113.68,91.69,185.8,152.84,131.4,111.41,294.91,250,361.51,277.44,44.27,18.21,86.86,20.54,134,21.58,9.42.19,19.86-.18,30.55-.58,44.28-1.54,90-3.1,119.35,24,40.7,37.73,33.81,94.86,29.26,132.69-1,8.08-2,15.75-2.28,22.6-1.62,34.26,5.17,66.91,18.18,87.35,12.85,20.19,37.84,36.22,59.45,38.09,109.24,9.49,292.55,16,439.82,21.16,28.05,1,54.65,1.91,79,2.82,7.83-24.19,17.52-69.1,23.28-95.81,7.8-36,14.5-67.1,21.4-85.91,1.14-3.17,2.25-6.64,3.39-10.23,7.74-24.29,25.75-81.27,84.83-77.26,39.48,2.63,139.18,8.43,230.48,13.73,60.67,3.52,117.64,6.85,150.9,8.88,57.9,3.37,62.67,114.38,63,127,1.64,58.36,11.81,115.88,114.12,122.24,27.34,1.7,63.5,4.05,105.54,6.76C3726,2050,4018.73,2068.93,4179,2074.27c31.6-35.22,120.84-162.54,141.38-206.28,4.61-9.84,9.43-45.76,6.22-68.13-12.91-89.78-36.53-265.93-63.87-469.86-48.23-359.71-108.26-807.4-136.15-978.4-.9-5.55-1.87-14.53-3-25.48-1.5-14.92-5.5-54.35-11.36-76.19-55.64,5.24-147.2,4.78-189.3-18.15-28.14-15.31-79-48.83-103.06-101.3-12.2-26.59-27.15-42.58-38.21-42.9-12.55.6-20.28,5.2-22.58,7.48-6.36,42.33-16.69,123.88-25,189.58L3728.72,327c-7.78,60.92,10.35,115.77,44.3,189.93,32.5,70.94,41.07,94.37,59.84,145.69,6.19,17,13.6,37.19,23.42,63.46,11.38,30.32,41.59,110.89,46.83,200.34,2.5,42.47,6.19,85.31,9.47,123.13,3.47,40.2,6.46,74.93,7.73,103.85,2.26,53-44.29,96.72-91.46,116.49-45.37,19-115.43,25.91-164.66,24.45-186.12-5.8-753.31-40.72-953-55.43-20.43-1.51-41.05-2.42-61.71-3.35-72.18-3.22-146.8-6.55-217.76-33.7-89.71-34.33-204.34-103.09-315.19-169.6-31.49-18.86-62.47-37.46-92.13-54.78-74.91-43.79-164.72-100.28-244-150.11-62.1-39.08-120.79-76-159-98.33-9-5.22-18.54-11.31-28.4-17.58-17.64-11.23-49.73-31.64-63.28-33.84-5.7,5-15,20.51-20.7,30.09-6.5,10.86-13.23,22.08-21.21,32.33-55.42,70.92-116.69,167.64-165.92,245.33-15.75,24.82-30,47.26-42,65.62-5.91,9-13.85,24.85-22.25,41.59-27.74,55.3-48.17,92.75-77.78,108.81-44.77,24.26-84.94-22.81-111.49-53.93-4-4.69-7.41-8.78-10-11.39-16.27-16.46-39.19-41-65.72-69.53-49.49-53.09-111.09-119.17-151.16-155.41-30.9-28-82.62-74.76-112.61-75.37-18.41.4-79.28,50.9-109.07,101.92C590.35,988.24,545.25,1073.4,493.07,1172c-47.88,90.42-102.14,192.91-157.28,293.08l-35.54,64.69c-85.73,156.32-159.88,291.48-214,361m237.2,309h0ZM3260.68,1870l.24,0-.24,0"/></g></g></svg>
